X: 3
T: the Duke of Gordon #2
M:4/4
L:1/8
%Q:128
K:G
G \
|:"G"G3/D/ G/B3/ G3/D/ G/B3/ | "G"d3/B/ g3/B/ "D7"A/A3/ A3/B/ \
| "G"G3/D/ G/B3/ G3/D/ G/B3/ | "D7"d3/c/ B3/A/ "G"G/G3/ G2 :|
|:"G"g3/a/ b3/g/ d/d3/ d2 | "G"g3/a/ b3/g/ "C"e/e3/ e3/f/ \
| "G"g/b3/ "C"e/g3/ "G"d/g3/ "Em"B/g3/ | "D7"A3/G/ A3/B/ "G"G/G3/ G2 :|


%%sep 3 1 500

